X: 189
T:De profundis clamavi
N: Derived from Jos1513-De_profundis_clamavi.krn
C: Josquin des Prez
%%abc-version 2.0
%%abcx-abcm2ps-target-version 5.9.1 (29 Sep 2008)
%%abc-creator hum2abc beta
%%abcx-conversion-date 2019/02/12 16:15:47
%%abc-edited-by Jesse Rodin
%%abc-edited-by Adam Detzner 2011/04/04; Victoria Chang 2011/04/10
%%abcx-initial-encoding-date 2011/04/04/
%%humdrum-veritas 848164705
%%humdrum-veritas-data 677694850
%%linebreak <none>
%%barnumbers 0
L: 1/4
M: 2/1
Q: 1/2=120
V: 1 clef=treble
V: 2 clef=treble-8
V: 3 clef=treble-8
V: 4 clef=bass
V: 5 clef=bass
K: C
[V:1] D4D4 | 
[V:2] z8 | 
[V:3] z8 | 
[V:4] z8 | 
[V:5] z4D,4 | 
[V:1] D4F4 | 
[V:2] z8 | 
[V:3] D4D4 | 
[V:4] z8 | 
[V:5] D,4D,4 | 
[V:1] F2F3EDC | 
[V:2] z8 | 
[V:3] D4F4- | 
[V:4] D,4D,4 | 
[V:5] F,6F,2 | 
[V:1] D4C4 | 
[V:2] z8 | 
[V:3] F2F2F3G | 
[V:4] D,4F,4 | 
[V:5] F,3G,A,4 | 
[V:1] F6F2 | 
[V:2] A4A4 | 
[V:3] A4D4 | 
[V:4] F,2F,3E,D,C, | 
[V:5] D,3E,F,4 | 
[V:1] F2F2E4 | 
[V:2] A4c4 | 
[V:3] F4G4 | 
[V:4] D,4C,4 | 
[V:5] z8 | 
[V:1] z8 | 
[V:2] c2c3BAG | 
[V:3] A2A2A3B | 
[V:4] F,6F,2 | 
[V:5] F,,6F,,2 | 
[V:1] z8 | 
[V:2] A4G4 | 
[V:3] c4z4 | 
[V:4] F,2F,2E,4 | 
[V:5] F,,2F,,2C,4 | 
[V:1] E4E2E2 | 
[V:2] c6c2 | 
[V:3] C6C2 | 
[V:4] z8 | 
[V:5] z8 | 
[V:1] E4D4 | 
[V:2] c2c2B4 | 
[V:3] C2C2G4 | 
[V:4] z8 | 
[V:5] z8 | 
[V:1] G4z2G2- | 
[V:2] z8 | 
[V:3] z4G3G | 
[V:4] E,4E,2E,2 | 
[V:5] z2C,4C,2 | 
[V:1] G2G2F3D | 
[V:2] z8 | 
[V:3] G2E2F2D2- | 
[V:4] E,4D,4 | 
[V:5] C,2C,2D,4 | 
[V:1] D4z4 | 
[V:2] B4B2B2 | 
[V:3] D2d4d2 | 
[V:4] G,4z2G,2- | 
[V:5] G,,8 | 
[V:1] D4A4 | 
[V:2] B4A4 | 
[V:3] d4D3E | 
[V:4] G,2G,2F,3D, | 
[V:5] z8 | 
[V:1] F2D2F4- | 
[V:2] d4z2d2- | 
[V:3] F3GA4 | 
[V:4] D,4z4 | 
[V:5] z2D,4D,2 | 
[V:1] F4E4 | 
[V:2] d2d2c3A | 
[V:3] z4z2c2 | 
[V:4] D,4A,4 | 
[V:5] D,4A,,2A,2- | 
[V:1] A6A2 | 
[V:2] A4z4 | 
[V:3] c2d4c2 | 
[V:4] F,2D,2F,4- | 
[V:5] A,G,F,E,D,2A,2 | 
[V:1] A4G4 | 
[V:2] A4e4 | 
[V:3] d2A2z4 | 
[V:4] F,4E,4 | 
[V:5] [M:2/1](3:2:6D,3E,F,2C,3D,E,2 | 
[V:1] z4E4 | 
[V:2] c2A2c4- | 
[V:3] z2c4A2 | 
[V:4] A,6A,2 | 
[V:5] [M:2/1]A,,4z2A,,2 | 
[V:1] E4G4 | 
[V:2] c4B4 | 
[V:3] e4e2E2 | 
[V:4] A,4G,4 | 
[V:5] A,,4E,4 | 
[V:1] G6G2 | 
[V:2] e6e2 | 
[V:3] E4G4 | 
[V:4] z4E,4 | 
[V:5] z2E,2E,4 | 
[V:1] G2G2G4 | 
[V:2] e4d4 | 
[V:3] z4z2B2 | 
[V:4] E,4G,4 | 
[V:5] G,4G,,4- | 
[V:1] D6EF | 
[V:2] z4B4 | 
[V:3] B4d4 | 
[V:4] G,6G,2 | 
[V:5] G,,2G,,2G,,2G,,2 | 
[V:1] G2D2G4 | 
[V:2] B4d4 | 
[V:3] z8 | 
[V:4] G,2G,2G,4 | 
[V:5] G,,2G,,2_B,4 | 
[V:1] F8 | 
[V:2] d6d2 | 
[V:3] z4z2A2 | 
[V:4] D,6E,F, | 
[V:5] A,3G,F,E,D,2 | 
[V:1] z8 | 
[V:2] d2d2d4 | 
[V:3] B2A2B2d2- | 
[V:4] G,2D,2G,4 | 
[V:5] G,,2D,2G,,4 | 
[V:1] A4A2A2 | 
[V:2] A6Bc | 
[V:3] d2cBA2D2 | 
[V:4] F,8 | 
[V:5] D,8- | 
[V:1] F4F4 | 
[V:2] d2A2d4 | 
[V:3] F3GA4 | 
[V:4] z8 | 
[V:5] D,8 | 
[V:1] E4A4- | 
[V:2] c8 | 
[V:3] z8 | 
[V:4] A,4A,2A,2 | 
[V:5] z4A,,4 | 
[V:1] A2A2A2A2 | 
[V:2] z8 | 
[V:3] c4d2d2 | 
[V:4] F,4F,4 | 
[V:5] A,2A,2D,4 | 
[V:1] G4E3E | 
[V:2] e4e2e2 | 
[V:3] B4c4 | 
[V:4] E,4A,4- | 
[V:5] E,4A,,4 | 
[V:1] E4z4 | 
[V:2] c4c4 | 
[V:3] A4e2e2 | 
[V:4] A,2A,2A,2A,2 | 
[V:5] A,,2A,,2A,,2A,,2 | 
[V:1] z4G3G | 
[V:2] B4e4- | 
[V:3] e2e2e4 | 
[V:4] G,4E,3E, | 
[V:5] E,4C,3C, | 
[V:1] G2G2G2G2 | 
[V:2] e2e2e2e2 | 
[V:3] c3cc4 | 
[V:4] E,4z4 | 
[V:5] C,4z2C,2 | 
[V:1] F3DD4 | 
[V:2] d4B3B | 
[V:3] z2A2G2d2 | 
[V:4] z4G,3G, | 
[V:5] D,2D,2z2G,,2 | 
[V:1] z4D4 | 
[V:2] B4z4 | 
[V:3] [M:2/1](3:2:4d4d2d2d4 | 
[V:4] G,2G,2G,2G,2 | 
[V:5] G,,2G,,2_B,4 | 
[V:1] A6A2 | 
[V:2] z4d3d | 
[V:3] [M:2/1]D4z2f2 | 
[V:4] F,3D,D,4 | 
[V:5] A,4z2D,2 | 
[V:1] A4A4 | 
[V:2] d2d2d2d2 | 
[V:3] f2f2f4 | 
[V:4] z4D,4 | 
[V:5] D,2D,2D,4 | 
[V:1] z2c2c3c | 
[V:2] c3AA4 | 
[V:3] e8 | 
[V:4] A,6A,2 | 
[V:5] A,,4z2A,,2 | 
[V:1] c2c2A4 | 
[V:2] z4A4 | 
[V:3] z2E2F2F2 | 
[V:4] A,4A,4 | 
[V:5] A,,2A,,2F,,4 | 
[V:1] G8 | 
[V:2] e6e2 | 
[V:3] E3FG4 | 
[V:4] z2C2C3C | 
[V:5] C,8 | 
[V:1] z8 | 
[V:2] e4e4 | 
[V:3] z2C2c2c2 | 
[V:4] C2C2A,4 | 
[V:5] z8 | 
[V:1] z2_B2B2B2 | 
[V:2] z2g2g3g | 
[V:3] _B2G2_B3c | 
[V:4] G,8 | 
[V:5] z2G,,2G,,3G,, | 
[V:1] _B2B2G4 | 
[V:2] g2g2e4 | 
[V:3] d2_B2c2c2 | 
[V:4] z8 | 
[V:5] G,2G,2C,4 | 
[V:1] F4F4 | 
[V:2] d8 | 
[V:3] A2D2d4- | 
[V:4] z2_B,2B,2B,2 | 
[V:5] D,2_B,,2B,,2B,,2 | 
[V:1] _B6B2 | 
[V:2] z8 | 
[V:3] d4d4 | 
[V:4] _B,2B,2G,4 | 
[V:5] G,,2G,,2G,,4 | 
[V:1] A4A4 | 
[V:2] z2f2f2f2 | 
[V:3] z2D2F2D2 | 
[V:4] F,4F,4 | 
[V:5] D,2F,2D,2F,2 | 
[V:1] F2F2F4 | 
[V:2] f2f2d4 | 
[V:3] F2D2F3F | 
[V:4] _B,6B,2 | 
[V:5] _B,,4B,,4 | 
[V:1] z8 | 
[V:2] c4c4 | 
[V:3] F2A2c2A2 | 
[V:4] A,4A,4 | 
[V:5] F,,3F,,F,,4 | 
[V:1] A4A2A2 | 
[V:2] f6f2 | 
[V:3] c2A2c3c | 
[V:4] F,2F,2F,4 | 
[V:5] z8 | 
[V:1] G4G4 | 
[V:2] e4e4 | 
[V:3] c4z2c2 | 
[V:4] z8 | 
[V:5] C,4C,2C,2 | 
[V:1] A2A2A4 | 
[V:2] c2c2c4 | 
[V:3] c2A2c2A2 | 
[V:4] A,4A,2A,2 | 
[V:5] F,4F,,4 | 
[V:1] D4D4 | 
[V:2] z8 | 
[V:3] _B2G2D4 | 
[V:4] G,4G,4 | 
[V:5] G,,2G,,2_B,,4 | 
[V:1] C4A,2A2- | 
[V:2] e4e2e2 | 
[V:3] E4z2E2 | 
[V:4] A,2A,2A,4 | 
[V:5] A,,8 | 
[V:1] AGFEF4 | 
[V:2] d4d4 | 
[V:3] F2D2A3B | 
[V:4] D,4D,4 | 
[V:5] z8 | 
[V:1] E8 | 
[V:2] e2e2e4 | 
[V:3] c8 | 
[V:4] C,4A,,2A,2- | 
[V:5] z4A,,4 | 
[V:1] z8 | 
[V:2] A4A4 | 
[V:3] z2c2c2c2 | 
[V:4] A,G,F,E,F,4 | 
[V:5] F,,2F,,2F,,4 | 
[V:1] G4G2G2 | 
[V:2] G4E2e2- | 
[V:3] c4G4 | 
[V:4] E,8 | 
[V:5] C,4z2C,2 | 
[V:1] G2G2E2E2 | 
[V:2] edcBc4 | 
[V:3] z2G2G2G2 | 
[V:4] z8 | 
[V:5] C,2C,2C,4 | 
[V:1] D4D4 | 
[V:2] B8 | 
[V:3] G4D2d2 | 
[V:4] G,4G,2G,2 | 
[V:5] G,,8 | 
[V:1] G6G2 | 
[V:2] z8 | 
[V:3] B2G2B2c2 | 
[V:4] G,2G,2E,2E,2 | 
[V:5] z2G,,2G,2C,2 | 
[V:1] F4z4 | 
[V:2] d4d2d2 | 
[V:3] d2A2_B2F2 | 
[V:4] D,4D,4 | 
[V:5] [M:2/1](3F,2D,2F,2(3_B,,3C,D,2 | 
[V:1] D4D4 | 
[V:2] d2d2B2B2 | 
[V:3] _B3cd4 | 
[V:4] G,6G,2 | 
[V:5] [M:2/1]G,,2G,,2G,,3G,, | 
[V:1] F3GA4 | 
[V:2] A4A4 | 
[V:3] z2D2F3G | 
[V:4] F,4z4 | 
[V:5] D,8 | 
[V:1] F6D2 | 
[V:2] d6d2 | 
[V:3] A4z4 | 
[V:4] D,4D,4 | 
[V:5] z8 | 
[V:1] A4E2E2 | 
[V:2] c4z4 | 
[V:3] z8 | 
[V:4] F,3G,A,4 | 
[V:5] z8 | 
[V:1] F2F2F4 | 
[V:2] A4A4 | 
[V:3] z4A2A2 | 
[V:4] F,6D,2 | 
[V:5] D,2D,2D,2D,2 | 
[V:1] E8 | 
[V:2] c3de4 | 
[V:3] A3Ac4 | 
[V:4] A,4E,2E,2 | 
[V:5] A,,4A,,4 | 
[V:1] z8 | 
[V:2] c6A2 | 
[V:3] z2c2A2c2- | 
[V:4] F,2F,2F,4 | 
[V:5] A,4A,4 | 
[V:1] z4G4 | 
[V:2] e4B2B2 | 
[V:3] c2BAG2G2 | 
[V:4] E,8 | 
[V:5] A,,4E,4 | 
[V:1] G4E3F | 
[V:2] c2c2c4 | 
[V:3] E3FG4 | 
[V:4] z8 | 
[V:5] C,2C,2C,4 | 
[V:1] G6G2 | 
[V:2] B8 | 
[V:3] G8 | 
[V:4] z4G,4 | 
[V:5] G,,4z4 | 
[V:1] D4E4 | 
[V:2] z8 | 
[V:3] B4c4 | 
[V:4] G,4E,3F, | 
[V:5] G,,4C,4 | 
[V:1] D8 | 
[V:2] z4d4 | 
[V:3] B3BB2B2 | 
[V:4] G,6G,2 | 
[V:5] G,,3G,,G,2G,2 | 
[V:1] z8 | 
[V:2] d4B3c | 
[V:3] A4G4 | 
[V:4] D,4E,4 | 
[V:5] F,4G,4 | 
[V:1] [M:2/1](3F4F4F4 | 
[V:2] d6d2 | 
[V:3] A2DEFGAB | 
[V:4] D,8 | 
[V:5] F,8 | 
[V:1] (3E4F4D4 | 
[V:2] A4B4 | 
[V:3] c4d4 | 
[V:4] z8 | 
[V:5] z8 | 
[V:1] (3A4A4A4 | 
[V:2] A8 | 
[V:3] D8 | 
[V:4] [M:2/1](3F,4F,4F,4 | 
[V:5] z8 | 
[V:1] (3G4C4F4 | 
[V:2] z8 | 
[V:3] z8 | 
[V:4] (3E,4F,4D,4 | 
[V:5] z8 | 
[V:1] [M:2/1]E4z2C2 | 
[V:2] [M:3/1](3c4c4c4 | 
[V:3] z8 | 
[V:4] (3A,4A,4A,4 | 
[V:5] z8 | 
[V:1] D2E2C4 | 
[V:2] (3B4c4A4 | 
[V:3] z8 | 
[V:4] (3G,4C,4F,4 | 
[V:5] z8 | 
[V:1] G2G2G2E2 | 
[V:2] (3e4e4e4 | 
[V:3] z8 | 
[V:4] [M:2/1]E,4z2C,2 | 
[V:5] z8 | 
[V:1] F2G2E2E2 | 
[V:2] (3d4G4c4 | 
[V:3] z8 | 
[V:4] D,2E,2C,4 | 
[V:5] z8 | 
[V:1] D2D2G2G2 | 
[V:2] [M:2/1]B4z2G2 | 
[V:3] z8 | 
[V:4] G,2G,2G,2E,2 | 
[V:5] z8 | 
[V:1] F2D2G4 | 
[V:2] A2B2G4 | 
[V:3] z8 | 
[V:4] F,2G,2E,2E,2 | 
[V:5] z8 | 
[V:1] F4D4 | 
[V:2] d2d2d2B2 | 
[V:3] z8 | 
[V:4] D,2D,2G,2G,2 | 
[V:5] z8 | 
[V:1] A4D4 | 
[V:2] c2d2B2B2 | 
[V:3] z8 | 
[V:4] F,2D,2G,4 | 
[V:5] z8 | 
[V:1] F6F2 | 
[V:2] A2A2d2d2 | 
[V:3] A4A4- | 
[V:4] F,4D,4 | 
[V:5] z2D,2D,3D, | 
[V:1] E2E2F2D2 | 
[V:2] c2A2d4 | 
[V:3] A2A2A4 | 
[V:4] A,4D,4 | 
[V:5] A,,4z2A,2 | 
[V:1] A6A2 | 
[V:2] c4A4 | 
[V:3] z8 | 
[V:4] F,6F,2 | 
[V:5] A,2A,2F,2F,2 | 
[V:1] G4F4 | 
[V:2] e4A4 | 
[V:3] z8 | 
[V:4] E,2E,2F,2D,2 | 
[V:5] C,4D,4 | 
[V:1] E4z4 | 
[V:2] c6c2 | 
[V:3] z2e2e2c2 | 
[V:4] A,6A,2 | 
[V:5] A,,8 | 
[V:1] z8 | 
[V:2] B2B2c2A2 | 
[V:3] d2e2A2c2- | 
[V:4] G,4F,4 | 
[V:5] z8 | 
[V:1] G6G2 | 
[V:2] e6e2 | 
[V:3] c2BAG4 | 
[V:4] E,4z4 | 
[V:5] C,6C,2 | 
[V:1] F2D2E4 | 
[V:2] d4c4 | 
[V:3] z4G4- | 
[V:4] z8 | 
[V:5] D,2_B,,2C,4 | 
[V:1] D4z2_B2 | 
[V:2] B4z4 | 
[V:3] G2G2d2d2 | 
[V:4] G,6G,2 | 
[V:5] G,,8 | 
[V:1] A2F2G4 | 
[V:2] z8 | 
[V:3] [M:2/1](3d2A2B2[M:2/1]c4 | 
[V:4] F,2D,2E,4 | 
[V:5] D,4C,4 | 
[V:1] F3FF2D2 | 
[V:2] d6d2 | 
[V:3] F2F2F2F2 | 
[V:4] D,4z2_B,2 | 
[V:5] D,6_B,,2 | 
[V:1] E2F2D3E | 
[V:2] c2A2B4 | 
[V:3] E2D2D2d2 | 
[V:4] A,2F,2G,4 | 
[V:5] C,2D,2G,,4 | 
[V:1] F4A4 | 
[V:2] A4z2f2 | 
[V:3] d2d2A3B | 
[V:4] F,3F,F,2D,2 | 
[V:5] z2D,2D,2F,2 | 
[V:1] G2A2F4- | 
[V:2] e2c2d4 | 
[V:3] c4z4 | 
[V:4] E,2F,2D,3E, | 
[V:5] C,2A,,2A,4 | 
[V:1] F4E4 | 
[V:2] c3cc2A2 | 
[V:3] z8 | 
[V:4] F,4A,4 | 
[V:5] z4A,,4 | 
[V:1] z8 | 
[V:2] B2c2A3B | 
[V:3] z2A2A2A2 | 
[V:4] G,2A,2F,4- | 
[V:5] E,2A,,2D,4 | 
[V:1] z4z2G2 | 
[V:2] c4e4 | 
[V:3] A4G4 | 
[V:4] F,4E,4 | 
[V:5] A,,3B,,C,4 | 
[V:1] F2G2E3F | 
[V:2] d2e2c4- | 
[V:3] z2G2G2G2 | 
[V:4] z8 | 
[V:5] z2C,2C,2C,2 | 
[V:1] G4z2G2 | 
[V:2] c4B4 | 
[V:3] E3FG2d2- | 
[V:4] z4z2G,2 | 
[V:5] C,4G,,4 | 
[V:1] A2G4FE | 
[V:2] z8 | 
[V:3] d2d2c4 | 
[V:4] F,2G,2E,3F, | 
[V:5] D,2G,,2C,4 | 
[V:1] D8 | 
[V:2] z4z2d2 | 
[V:3] B8 | 
[V:4] G,4z2G,2 | 
[V:5] G,,8 | 
[V:1] z2D2D2D2 | 
[V:2] c2d2B3c | 
[V:3] z4z2d2 | 
[V:4] A,2G,4F,E, | 
[V:5] z4G,4 | 
[V:1] F3GA4 | 
[V:2] d4z2d2 | 
[V:3] d2f4ed | 
[V:4] D,8 | 
[V:5] F,2D,4C,B,, | 
[V:1] z4A4- | 
[V:2] e2d4cB | 
[V:3] c2d2A4 | 
[V:4] z2D,2D,2D,2 | 
[V:5] A,,2D,2z2D,2 | 
[V:1] A2A2A4 | 
[V:2] A8 | 
[V:3] z2A2A2A2 | 
[V:4] F,3G,A,4 | 
[V:5] D,2D,2F,3G, | 
[V:1] E8- | 
[V:2] z2A2A2A2 | 
[V:3] c3de4 | 
[V:4] z4A,4- | 
[V:5] A,4A,,4 | 
[V:1] E8- | 
[V:2] c3de4 | 
[V:3] A4c4- | 
[V:4] A,2A,2A,4 | 
[V:5] z2A,,6- | 
[V:1] E8 | 
[V:2] z4e4- | 
[V:3] c2c2c4 | 
[V:4] E,8- | 
[V:5] A,,2A,,2A,,4 | 
[V:1] G8- | 
[V:2] e2e2e4 | 
[V:3] B6G2 | 
[V:4] E,8- | 
[V:5] E,,8- | 
[V:1] G8 |]  
[V:2] B8 |]  
[V:3] G8 |]  
[V:4] E,8 |]  
[V:5] E,,8 |]  



